OpenStockApp/Resources/Images/discord_logo_dark.svg

<svg width="71" height="55" viewBox="0 0 71 55" fill="none" xmlns="http://www.w3.org/2000/svg">
<g clip-path="url(#clip0)">
<path d="M60.1045 4.8978C55.5792 2.8214 50.7265 1.2916 45.6527 0.41542C45.5603 0.39851 45.468 0.440769 45.4204 0.525289C44.7963 1.6353 44.105 3.0834 43.6209 4.2216C38.1637 3.4046 32.7345 3.4046 27.3892 4.2216C26.905 3.0581 26.1886 1.6353 25.5617 0.525289C25.5141 0.443589 25.4218 0.40133 25.3294 0.41542C20.2584 1.2888 15.4057 2.8186 10.8776 4.8978C10.8384 4.9147 10.8048 4.9429 10.7825 4.9795C1.57795 18.7309 -0.943561 32.1443 0.293408 45.3914C0.299005 45.4562 0.335386 45.5182 0.385761 45.5576C6.45866 50.0174 12.3413 52.7249 18.1147 54.5195C18.2071 54.5477 18.305 54.5139 18.3638 54.4378C19.7295 52.5728 20.9469 50.6063 21.9907 48.5383C22.0523 48.4172 21.9935 48.2735 21.8676 48.2256C19.9366 47.4931 18.0979 46.6 16.3292 45.5858C16.1893 45.5041 16.1781 45.304 16.3068 45.2082C16.679 44.9293 17.0513 44.6391 17.4067 44.3461C17.471 44.2926 17.5606 44.2813 17.6362 44.3151C29.2558 49.6202 41.8354 49.6202 53.3179 44.3151C53.3935 44.2785 53.4831 44.2898 53.5502 44.3433C53.9057 44.6363 54.2779 44.9293 54.6529 45.2082C54.7816 45.304 54.7732 45.5041 54.6333 45.5858C52.8646 46.6197 51.0259 47.4931 49.0921 48.2228C48.9662 48.2707 48.9102 48.4172 48.9718 48.5383C50.038 50.6034 51.2554 52.5699 52.5959 54.435C52.6519 54.5139 52.7526 54.5477 52.845 54.5195C58.6464 52.7249 64.529 50.0174 70.6019 45.5576C70.6551 45.5182 70.6887 45.459 70.6943 45.3942C72.1747 30.0791 68.2147 16.7757 60.1968 4.9823C60.1772 4.9429 60.1437 4.9147 60.1045 4.8978ZM23.7259 37.3253C20.2276 37.3253 17.3451 34.1136 17.3451 30.1693C17.3451 26.225 20.1717 23.0133 23.7259 23.0133C27.308 23.0133 30.1626 26.2532 30.1066 30.1693C30.1066 34.1136 27.28 37.3253 23.7259 37.3253ZM47.3178 37.3253C43.8196 37.3253 40.9371 34.1136 40.9371 30.1693C40.9371 26.225 43.7636 23.0133 47.3178 23.0133C50.9 23.0133 53.7545 26.2532 53.6986 30.1693C53.6986 34.1136 50.9 37.3253 47.3178 37.3253Z" fill="#ffffff"/>
</g>
<defs>
<clipPath id="clip0">
<rect width="71" height="55" fill="white"/>
</clipPath>
</defs>
</svg>

<svg xmlns="http://www.w3.org/2000/svg" xmlns:xlink="http://www.w3.org/1999/xlink" viewBox="0 0 71 54.12"><defs><clipPath id="a" transform="translate(0 -0.41)"><rect width="71" height="55" style="fill:none"/></clipPath></defs><g style="clip-path:url(#a)"><path d="M60.1,4.9A58,58,0,0,0,45.65.42a.21.21,0,0,0-.23.11,40.45,40.45,0,0,0-1.8,3.69,53.85,53.85,0,0,0-16.23,0A36.14,36.14,0,0,0,25.56.53a.21.21,0,0,0-.23-.11A58.23,58.23,0,0,0,10.88,4.9a.16.16,0,0,0-.1.08C1.58,18.73-.94,32.14.29,45.39a.27.27,0,0,0,.1.17,59,59,0,0,0,17.72,9,.23.23,0,0,0,.25-.08A41.53,41.53,0,0,0,22,48.54a.22.22,0,0,0-.12-.31,40.22,40.22,0,0,1-5.54-2.64.23.23,0,0,1,0-.38l1.1-.86a.2.2,0,0,1,.23,0,42,42,0,0,0,35.68,0,.21.21,0,0,1,.23,0c.36.3.73.59,1.1.87a.23.23,0,0,1,0,.38,36.52,36.52,0,0,1-5.54,2.63.24.24,0,0,0-.12.32,48.6,48.6,0,0,0,3.63,5.9.23.23,0,0,0,.25.08,58.75,58.75,0,0,0,17.75-9,.2.2,0,0,0,.09-.17A59.58,59.58,0,0,0,60.2,5,.16.16,0,0,0,60.1,4.9ZM23.73,37.33c-3.5,0-6.38-3.22-6.38-7.16S20.17,23,23.73,23s6.43,3.24,6.38,7.16S27.28,37.33,23.73,37.33Zm23.59,0c-3.5,0-6.38-3.22-6.38-7.16S43.76,23,47.32,23s6.43,3.24,6.38,7.16S50.9,37.33,47.32,37.33Z" transform="translate(0 -0.41)" style="fill:#fff"/></g></svg>
